app/icons/type-5.svg

<svg xmlns="http://www.w3.org/2000/svg" width="64" height="71.75" viewBox="0 0 64 71.75"><defs><style>.cls-1 { fill: #ededed; } .cls-1, .cls-3, .cls-4, .cls-5, .cls-6 { fill-rule: evenodd; } .cls-2, .cls-5 { fill: #d8e4ef; } .cls-3 { fill: #509ceb; } .cls-4 { fill: #a2c0dc; } .cls-6 { fill: #005ab7; }</style></defs><path id="Слой_375" class="cls-1" d="M32 61.8c17.66 0 32 2.23 32 4.97s-14.34 4.98-32 4.98-32-2.23-32-4.98 14.34-4.97 32-4.97z"/><g id="Слой_413"><g id="Слой_398"><g id="Слой_385"><circle id="Слой_379" class="cls-2" cx="39.11" cy="42.67" r="24.89"/><path id="Слой_380" class="cls-3" d="M39.11 18.49a24.175 24.175 0 1 1-24.177 24.17 24.185 24.185 0 0 1 24.177-24.17zm0 .71a23.465 23.465 0 1 1-23.463 23.46 23.472 23.472 0 0 1 23.463-23.46z"/><g id="Слой_384"><path id="Слой_382" class="cls-4" d="M38.755 24.53a17.78 17.78 0 1 1-17.777 17.78 17.79 17.79 0 0 1 17.777-17.78z"/><path id="Слой_383" class="cls-3" d="M26.918 55.57a17.776 17.776 0 1 1 25.1-25.1 17.776 17.776 0 0 0-25.1 25.1z"/></g></g><g id="Слой_393"><path id="Слой_387" class="cls-5" d="M24.89 17.78a24.885 24.885 0 1 1-24.89 24.88 24.9 24.9 0 0 1 24.89-24.88z"/><path id="Слой_388" class="cls-3" d="M24.89 18.49a24.175 24.175 0 1 1-24.18 24.17 24.185 24.185 0 0 1 24.18-24.17zm0 .71a23.465 23.465 0 1 1-23.466 23.46 23.472 23.472 0 0 1 23.466-23.46z"/><g id="Слой_392"><path id="Слой_390" class="cls-4" d="M24.533 24.53a17.78 17.78 0 1 1-17.777 17.78 17.79 17.79 0 0 1 17.777-17.78z"/><path id="Слой_391" class="cls-3" d="M12.7 55.57a17.776 17.776 0 1 1 25.1-25.1 17.776 17.776 0 0 0-25.1 25.1z"/></g></g><g id="Слой_397"><path id="Слой_395" class="cls-3" d="M22.452 39.22c0-2.5 1.092-4.52 2.437-4.52s2.435 2.02 2.435 4.52c2.373-.77 4.637-.36 5.052.92s-1.173 2.94-3.546 3.71c1.468 2.02 1.775 4.3.687 5.09s-3.162-.21-4.628-2.22c-1.467 2.01-3.54 3.01-4.63 2.22s-.78-3.07.686-5.09c-2.372-.77-3.96-2.43-3.546-3.71s2.68-1.69 5.052-.92z"/><path id="Слой_396" class="cls-6" d="M24.89 40.53a2.135 2.135 0 1 1-2.134 2.13 2.136 2.136 0 0 1 2.133-2.13z"/></g></g><g id="Слой_412"><g id="Слой_403"><path id="Слой_401" class="cls-3" d="M32 0s-4.978 7.46-4.978 10.66a4.978 4.978 0 1 0 9.956 0c0-3.2-4.978-10.66-4.978-10.66z"/><path id="Слой_402" class="cls-5" d="M29.867 7.11s-2.134 2.49-2.134 3.55a2.134 2.134 0 1 0 4.267 0c0-1.06-2.133-3.55-2.133-3.55z"/></g><g id="Слой_407"><path id="Слой_405" class="cls-3" d="M46.222 0s-4.978 7.46-4.978 10.66a4.978 4.978 0 1 0 9.956 0c0-3.2-4.978-10.66-4.978-10.66z"/><path id="Слой_406" class="cls-5" d="M44.09 7.11s-2.135 2.49-2.135 3.55a2.134 2.134 0 1 0 4.267 0c0-1.06-2.133-3.55-2.133-3.55z"/></g><g id="Слой_411"><path id="Слой_409" class="cls-3" d="M17.778 0s-4.978 7.46-4.978 10.66a4.978 4.978 0 1 0 9.956 0c0-3.2-4.978-10.66-4.978-10.66z"/><path id="Слой_410" class="cls-5" d="M15.644 7.11s-2.134 2.49-2.134 3.55a2.134 2.134 0 1 0 4.268 0c0-1.06-2.134-3.55-2.134-3.55z"/></g></g></g></svg>

<svg id="type-5" xmlns="http://www.w3.org/2000/svg" width="64" height="71.75" viewBox="0 0 64 71.75"><defs><style>.cls-1 { fill: #ededed; } .cls-1, .cls-3, .cls-4, .cls-5, .cls-6 { fill-rule: evenodd; } .cls-2, .cls-5 { fill: #d8e4ef; } .cls-3 { fill: #509ceb; } .cls-4 { fill: #a2c0dc; } .cls-6 { fill: #005ab7; }</style></defs><path id="Слой_375" data-name="Слой 375" class="cls-1" d="M32 61.8c17.66 0 32 2.23 32 4.97s-14.34 4.98-32 4.98-32-2.23-32-4.98 14.34-4.97 32-4.97z"/><g id="Слой_413" data-name="Слой 413"><g id="Слой_398" data-name="Слой 398"><g id="Слой_385" data-name="Слой 385"><circle id="Слой_379" data-name="Слой 379" class="cls-2" cx="39.11" cy="42.67" r="24.89"/><path id="Слой_380" data-name="Слой 380" class="cls-3" d="M39.11 18.49a24.175 24.175 0 1 1-24.177 24.17A24.185 24.185 0 0 1 39.11 18.49zm0 .71a23.465 23.465 0 1 1-23.463 23.46A23.472 23.472 0 0 1 39.11 19.2z"/><g id="Слой_384" data-name="Слой 384"><path id="Слой_382" data-name="Слой 382" class="cls-4" d="M38.755 24.53a17.78 17.78 0 1 1-17.777 17.78 17.79 17.79 0 0 1 17.777-17.78z"/><path id="Слой_383" data-name="Слой 383" class="cls-3" d="M26.918 55.57a17.776 17.776 0 1 1 25.1-25.1 17.776 17.776 0 0 0-25.1 25.1z"/></g></g><g id="Слой_393" data-name="Слой 393"><path id="Слой_387" data-name="Слой 387" class="cls-5" d="M24.89 17.78A24.885 24.885 0 1 1 0 42.66a24.9 24.9 0 0 1 24.89-24.88z"/><path id="Слой_388" data-name="Слой 388" class="cls-3" d="M24.89 18.49A24.175 24.175 0 1 1 .71 42.66a24.185 24.185 0 0 1 24.18-24.17zm0 .71A23.465 23.465 0 1 1 1.424 42.66 23.472 23.472 0 0 1 24.89 19.2z"/><g id="Слой_392" data-name="Слой 392"><path id="Слой_390" data-name="Слой 390" class="cls-4" d="M24.533 24.53A17.78 17.78 0 1 1 6.756 42.31a17.79 17.79 0 0 1 17.777-17.78z"/><path id="Слой_391" data-name="Слой 391" class="cls-3" d="M12.7 55.57a17.776 17.776 0 1 1 25.1-25.1 17.776 17.776 0 0 0-25.1 25.1z"/></g></g><g id="Слой_397" data-name="Слой 397"><path id="Слой_395" data-name="Слой 395" class="cls-3" d="M22.452 39.22c0-2.5 1.092-4.52 2.437-4.52s2.435 2.02 2.435 4.52c2.373-.77 4.637-.36 5.052.92s-1.173 2.94-3.546 3.71c1.468 2.02 1.775 4.3.687 5.09s-3.162-.21-4.628-2.22c-1.467 2.01-3.54 3.01-4.63 2.22s-.78-3.07.686-5.09c-2.372-.77-3.96-2.43-3.546-3.71s2.68-1.69 5.052-.92z"/><path id="Слой_396" data-name="Слой 396" class="cls-6" d="M24.89 40.53a2.135 2.135 0 1 1-2.134 2.13 2.136 2.136 0 0 1 2.133-2.13z"/></g></g><g id="Слой_412" data-name="Слой 412"><g id="Слой_403" data-name="Слой 403"><path id="Слой_401" data-name="Слой 401" class="cls-3" d="M32 0s-4.978 7.46-4.978 10.66a4.978 4.978 0 1 0 9.956 0C36.978 7.46 32 0 32 0z"/><path id="Слой_402" data-name="Слой 402" class="cls-5" d="M29.867 7.11s-2.134 2.49-2.134 3.55a2.134 2.134 0 1 0 4.267 0c0-1.06-2.133-3.55-2.133-3.55z"/></g><g id="Слой_407" data-name="Слой 407"><path id="Слой_405" data-name="Слой 405" class="cls-3" d="M46.222 0s-4.978 7.46-4.978 10.66a4.978 4.978 0 1 0 9.956 0C51.2 7.46 46.222 0 46.222 0z"/><path id="Слой_406" data-name="Слой 406" class="cls-5" d="M44.09 7.11s-2.135 2.49-2.135 3.55a2.134 2.134 0 1 0 4.267 0c0-1.06-2.133-3.55-2.133-3.55z"/></g><g id="Слой_411" data-name="Слой 411"><path id="Слой_409" data-name="Слой 409" class="cls-3" d="M17.778 0S12.8 7.46 12.8 10.66a4.978 4.978 0 1 0 9.956 0c0-3.2-4.978-10.66-4.978-10.66z"/><path id="Слой_410" data-name="Слой 410" class="cls-5" d="M15.644 7.11S13.51 9.6 13.51 10.66a2.134 2.134 0 1 0 4.268 0c0-1.06-2.134-3.55-2.134-3.55z"/></g></g></g></svg>
